public/img/form-ig.svg

<svg width="16" height="16" viewBox="0 0 16 16" fill="none" xmlns="http://www.w3.org/2000/svg">
<path d="M11 0H5C2.239 0 0 2.239 0 5V11C0 13.761 2.239 16 5 16H11C13.761 16 16 13.761 16 11V5C16 2.239 13.761 0 11 0ZM14.5 11C14.5 12.93 12.93 14.5 11 14.5H5C3.07 14.5 1.5 12.93 1.5 11V5C1.5 3.07 3.07 1.5 5 1.5H11C12.93 1.5 14.5 3.07 14.5 5V11Z" fill="#333333"/>
<path d="M8 4C5.791 4 4 5.791 4 8C4 10.209 5.791 12 8 12C10.209 12 12 10.209 12 8C12 5.791 10.209 4 8 4ZM8 10.5C6.622 10.5 5.5 9.378 5.5 8C5.5 6.621 6.622 5.5 8 5.5C9.378 5.5 10.5 6.621 10.5 8C10.5 9.378 9.378 10.5 8 10.5Z" fill="#333333"/>
<path d="M12.3001 4.23299C12.5945 4.23299 12.8331 3.99436 12.8331 3.69999C12.8331 3.40562 12.5945 3.16699 12.3001 3.16699C12.0057 3.16699 11.7671 3.40562 11.7671 3.69999C11.7671 3.99436 12.0057 4.23299 12.3001 4.23299Z" fill="#333333"/>
</svg>

<svg width="16" height="16" fill="none" xmlns="http://www.w3.org/2000/svg"><path d="M11 0H5a5 5 0 00-5 5v6a5 5 0 005 5h6a5 5 0 005-5V5a5 5 0 00-5-5zm3.5 11c0 1.93-1.57 3.5-3.5 3.5H5c-1.93 0-3.5-1.57-3.5-3.5V5c0-1.93 1.57-3.5 3.5-3.5h6c1.93 0 3.5 1.57 3.5 3.5v6z" fill="#333"/><path d="M8 4a4 4 0 100 8 4 4 0 000-8zm0 6.5A2.503 2.503 0 015.5 8c0-1.379 1.122-2.5 2.5-2.5s2.5 1.121 2.5 2.5c0 1.378-1.122 2.5-2.5 2.5zm4.3-6.267a.533.533 0 100-1.066.533.533 0 000 1.066z" fill="#333"/></svg>
